X: 21969
T: Kitty Lie Over
R: jig
M: 6/8
K: Dmajor
B|AFD DFA|BdB BAF|ABA F2 D|FEE E2 B|
AFD DFA|BdB BAF|ABA F2 E|FDD D2:|
|:e|fdd dcd|fdd dcd|~f3 def|~g3 efg
fed B2 d|A2 d F2 G|ABA F2 E|FDD D2:|

